Adwaita++-Dark/actions/16/align-horizontal-node.svg

<svg fill="none" height="16" viewBox="0 0 16 16" width="16" xmlns="http://www.w3.org/2000/svg" xmlns:xlink="http://www.w3.org/1999/xlink">
  <clipPath id="clip0">
    <path d="m0 0h16v16h-16z"/>
  </clipPath>
  <g clip-path="url(#clip0)" fill="#e6ddff">
    <rect height="16" rx=".5" width="2" x="7"/>
    <path d="m6 0h4v4h-4z"/>
    <path d="m6 6h4v4h-4z"/>
    <path d="m6 12h4v4h-4z"/>
    <path clip-rule="evenodd" d="m12.5 2.25h-10.25c-.41421 0-.75-.33579-.75-.75s.33579-.75.75-.75h10.25c1.5188 0 2.75 1.23122 2.75 2.75v2.5c0 1.51878-1.2312 2.75-2.75 2.75h-9c-.69036 0-1.25.55964-1.25 1.25v2c0 .6904.55964 1.25 1.25 1.25h9.75c.4142 0 .75.3358.75.75s-.3358.75-.75.75h-9.75c-1.51878 0-2.75-1.2312-2.75-2.75v-2c0-1.51878 1.23122-2.75 2.75-2.75h9c.6904 0 1.25-.55964 1.25-1.25v-2.5c0-.69036-.5596-1.25-1.25-1.25z" fill-rule="evenodd"/>
  </g>
</svg>

<svg xmlns="http://www.w3.org/2000/svg" fill="none" width="16" height="16" viewBox="0 0 16 16">
 <g clip-path="url(#clip0)">
  <rect fill="#E6DDFF" width="2" height="16" x="7" rx=".5"/>
  <rect fill="#E6DDFF" width="4" height="4" x="6"/>
  <rect fill="#E6DDFF" width="4" height="4" x="6" y="6"/>
  <rect fill="#E6DDFF" width="4" height="4" x="6" y="12"/>
  <path fill="#E6DDFF" fill-rule="evenodd" d="M12.5 2.25H2.25C1.83579 2.25 1.5 1.91421 1.5 1.5C1.5 1.08579 1.83579 0.75 2.25 0.75H12.5C14.0188 0.75 15.25 1.98122 15.25 3.5V6C15.25 7.51878 14.0188 8.75 12.5 8.75H3.5C2.80964 8.75 2.25 9.30964 2.25 10V12C2.25 12.6904 2.80964 13.25 3.5 13.25H13.25C13.6642 13.25 14 13.5858 14 14C14 14.4142 13.6642 14.75 13.25 14.75H3.5C1.98122 14.75 0.75 13.5188 0.75 12V10C0.75 8.48122 1.98122 7.25 3.5 7.25H12.5C13.1904 7.25 13.75 6.69036 13.75 6V3.5C13.75 2.80964 13.1904 2.25 12.5 2.25Z" clip-rule="evenodd"/>
 </g>
 <defs>
  <clipPath id="clip0">
   <rect fill="#fff" width="16" height="16"/>
  </clipPath>
 </defs>
</svg>
